icons/jamovi-filled.svg

<svg width="256" height="256" viewBox="0 0 256 256" fill="none" xmlns="http://www.w3.org/2000/svg">
<rect width="256" height="256" rx="60" fill="#3E6DA9"/>
<path d="M54 131.738V52.0002H75.0218H96.0435V107.188V162.376L99.3056 161.365C112.169 157.375 131.791 143.881 144.169 130.514C162.853 110.333 172.532 88.8886 176.5 58.8864L177.41 52H198.205H219L218.363 58.1616C214.664 93.9062 206.172 117.267 187.196 143.881C168.71 169.817 141.745 190.088 109.699 202.15C97.4735 206.752 73.7324 211.476 62.8356 211.476H54.0023L54 131.738Z" fill="white" stroke="#27456A" stroke-width="0.500003"/>
</svg>

<svg xmlns="http://www.w3.org/2000/svg" width="256" height="256" fill="none"><rect width="256" height="256" fill="#3E6DA9" rx="60"/><path fill="#fff" stroke="#27456A" stroke-width=".5" d="M54 131.738V52h42.043v110.376l3.263-1.011c12.863-3.99 32.485-17.484 44.863-30.851 18.684-20.181 28.363-41.625 32.331-71.628l.91-6.886H219l-.637 6.162c-3.699 35.744-12.191 59.105-31.167 85.719-18.486 25.936-45.451 46.207-77.497 58.269-12.225 4.602-35.967 9.326-46.863 9.326h-8.834z"/></svg>
